src/assets/svg-icon/land-with-shadow.svg

<svg width="103" height="95" viewBox="0 0 103 95" fill="none" xmlns="http://www.w3.org/2000/svg">
<rect y="33" width="103" height="50" fill="#3A2C1E"/>
<rect x="6" y="83" width="90" height="4" fill="#3A2C1E"/>
<rect x="14" y="87" width="74" height="4" fill="#3A2C1E"/>
<rect x="20" y="91" width="62" height="4" fill="#3A2C1E"/>
<path d="M97.0003 32.1172H92.4531V36.7074H97.0003V32.1172Z" fill="#FFF9E6"/>
<path d="M97.0003 27.5312H92.4531V32.1167H97.0003V27.5312Z" fill="#FFF9E6"/>
<path d="M92.4532 36.707H87.9014V41.2925H92.4532V36.707Z" fill="#FFF9E6"/>
<path d="M92.4532 32.1172H87.9014V36.7074H92.4532V32.1172Z" fill="#FFF9E6"/>
<path d="M92.4532 13.7656H87.9014V18.3511H92.4532V13.7656Z" fill="#5D7A3F"/>
<path d="M92.4532 9.17578H87.9014V13.766H92.4532V9.17578Z" fill="#5D7A3F"/>
<path d="M87.9015 55.0586H83.3496V59.6488H87.9015V55.0586Z" fill="#A3A550"/>
<path d="M87.9015 36.707H83.3496V41.2925H87.9015V36.707Z" fill="#FFF9E6"/>
<path d="M83.349 64.2344H78.8018V68.8245H83.349V64.2344Z" fill="#A3A550"/>
<path d="M83.349 41.293H78.8018V45.8831H83.349V41.293Z" fill="#FFF9E6"/>
<path d="M83.349 13.7656H78.8018V18.3511H83.349V13.7656Z" fill="#5D7A3F"/>
<path d="M83.349 4.58984H78.8018V9.17531H83.349V4.58984Z" fill="#5D7A3F"/>
<path d="M78.8019 27.5312H74.25V32.1167H78.8019V27.5312Z" fill="#C4C985"/>
<path d="M74.2503 41.293H69.7031V45.8831H74.2503V41.293Z" fill="#C4C985"/>
<path d="M69.7032 68.8242H65.1514V73.4144H69.7032V68.8242Z" fill="#A3A550"/>
<path d="M69.7032 50.4736H65.1514V55.0591H69.7032V50.4736Z" fill="#FFF9E6"/>
<path d="M69.7032 13.7656H65.1514V18.3511H69.7032V13.7656Z" fill="#5D7A3F"/>
<path d="M65.1505 55.0586H60.5986V59.6488H65.1505V55.0586Z" fill="#FFF9E6"/>
<path d="M65.1505 50.4736H60.5986V55.0591H65.1505V50.4736Z" fill="#FFF9E6"/>
<path d="M65.1505 36.707H60.5986V41.2925H65.1505V36.707Z" fill="#C4C985"/>
<path d="M65.1505 27.5312H60.5986V32.1167H65.1505V27.5312Z" fill="#C4C985"/>
<path d="M60.599 55.0586H56.0518V59.6488H60.599V55.0586Z" fill="#FFF9E6"/>
<path d="M60.599 45.8828H56.0518V50.473H60.599V45.8828Z" fill="#C4C985"/>
<path d="M56.0519 59.6484H51.5V64.2339H56.0519V59.6484Z" fill="#FFF9E6"/>
<path d="M51.4993 68.8242H46.9521V73.4144H51.4993V68.8242Z" fill="#A3A550"/>
<path d="M51.4993 59.6484H46.9521V64.2339H51.4993V59.6484Z" fill="#FFF9E6"/>
<path d="M51.4993 32.1172H46.9521V36.7074H51.4993V32.1172Z" fill="#C4C985"/>
<path d="M46.9523 64.2344H42.4004V68.8245H46.9523V64.2344Z" fill="#FFF9E6"/>
<path d="M46.9523 59.6484H42.4004V64.2339H46.9523V59.6484Z" fill="#FFF9E6"/>
<path d="M46.9523 45.8828H42.4004V50.473H46.9523V45.8828Z" fill="#C4C985"/>
<path d="M42.4015 64.2344H37.8496V68.8245H42.4015V64.2344Z" fill="#FFF9E6"/>
<path d="M42.4015 59.6484H37.8496V64.2339H42.4015V59.6484Z" fill="#FFF9E6"/>
<path d="M42.4015 55.0586H37.8496V59.6488H42.4015V55.0586Z" fill="#FFF9E6"/>
<path d="M37.8499 68.8242H33.3027V73.4144H37.8499V68.8242Z" fill="#FFF9E6"/>
<path d="M37.8499 64.2344H33.3027V68.8245H37.8499V64.2344Z" fill="#FFF9E6"/>
<path d="M37.8499 55.0586H33.3027V59.6488H37.8499V55.0586Z" fill="#FFF9E6"/>
<path d="M37.8499 50.4736H33.3027V55.0591H37.8499V50.4736Z" fill="#FFF9E6"/>
<path d="M37.8499 32.1172H33.3027V36.7074H37.8499V32.1172Z" fill="#C4C985"/>
<path d="M92.4528 36.707V41.2925H83.3491V45.8827H74.25V50.4728H69.7028V55.0583H65.1509V59.6485H56.0519V64.234H46.9528V68.8241H51.5V73.4143H46.9528V68.8241H37.8491V73.4143H28.75V77.9998H87.9009V73.4143H92.4528V64.234H97V36.707H92.4528ZM87.9009 59.6485H83.3491V55.0583H87.9009V59.6485ZM83.3491 68.8241H78.8019V64.234H83.3491V68.8241ZM65.1603 73.4143V68.8241H69.7121V73.4143H65.1603Z" fill="#B9BF6A"/>
<path d="M33.3019 50.4736H28.75V55.0591H33.3019V50.4736Z" fill="#FFF9E6"/>
<path d="M33.3019 45.8828H28.75V50.473H33.3019V45.8828Z" fill="#FFF9E6"/>
<path d="M33.3019 41.293H28.75V45.8831H33.3019V41.293Z" fill="#FFF9E6"/>
<path d="M33.3019 13.7656H28.75V18.3511H33.3019V13.7656Z" fill="#5D7A3F"/>
<path d="M28.7501 73.4141H24.1982V77.9995H28.7501V73.4141Z" fill="#FFF9E6"/>
<path d="M28.7501 41.293H24.1982V45.8831H28.7501V41.293Z" fill="#FFF9E6"/>
<path d="M28.7501 36.707H24.1982V41.2925H28.7501V36.707Z" fill="#FFF9E6"/>
<path d="M83.3496 13.7656V18.3511V22.9413H87.9015V18.3511V13.7656H83.3496Z" fill="#6D6D30"/>
<path d="M60.5986 18.3511V22.9413H65.1505V18.3511V13.7656H60.5986V18.3511Z" fill="#6D6D30"/>
<path d="M24.1982 22.9417V27.5319H28.7501V22.9417V18.3516H24.1982V22.9417Z" fill="#6D6D30"/>
<path d="M28.7501 13.7656H24.1982V18.3511H28.7501V13.7656Z" fill="#5D7A3F"/>
<path d="M24.1986 64.2344H19.6514V68.8245H24.1986V64.2344Z" fill="#BBBC7D"/>
<path d="M24.1986 59.6484H19.6514V64.2339H24.1986V59.6484Z" fill="#BBBC7D"/>
<path d="M24.1986 36.707H19.6514V41.2925H24.1986V36.707Z" fill="#FFF9E6"/>
<path d="M24.1986 32.1172H19.6514V36.7074H24.1986V32.1172Z" fill="#FFF9E6"/>
<path d="M87.9013 4.59017V0H83.3494H78.8022V4.59017H83.3494V9.17564H78.8022V4.59017H74.2503V9.17564V13.7658H69.7031V18.3513H74.2503H78.8022V13.7658H83.3494H87.9013V9.17564H92.4531V4.59017H87.9013Z" fill="#779659"/>
<path d="M69.7028 4.59017H65.1509V0H60.5991V4.59017H56.0519V9.17564H51.5V13.7658H56.0519V18.3513H60.5991V13.7658H65.1509H69.7028V9.17564V4.59017Z" fill="#779659"/>
<path d="M37.8499 13.7656H33.3027V18.3511H37.8499V13.7656Z" fill="#779659"/>
<path d="M33.3023 4.59017H28.7504V0H24.1986V4.59017V9.17564H19.6514V13.7658V18.3513H24.1986V13.7658H28.7504H33.3023V9.17564V4.59017Z" fill="#779659"/>
<path d="M19.6515 73.4141H15.0996V77.9995H19.6515V73.4141Z" fill="#BBBC7D"/>
<path d="M19.6515 64.2344H15.0996V68.8245H19.6515V64.2344Z" fill="#BBBC7D"/>
<path d="M19.6515 50.4736H15.0996V55.0591H19.6515V50.4736Z" fill="#BBBC7D"/>
<path d="M19.6515 32.1172H15.0996V36.7074H19.6515V32.1172Z" fill="#FFF9E6"/>
<path d="M92.4533 22.9414H28.7505V27.5316H24.1893V22.9414H15.0996V32.117H24.1893V36.7072H28.7412V41.2927H33.2931V50.473H37.8403V55.0585H42.3921V59.6487H56.0431V55.0585H60.5903V50.473H56.0431V45.8829H60.5903V50.473H74.2412V45.8829H69.694V41.2927H74.2412V45.8829H78.7931V41.2927H83.3403V36.7072H87.8922V32.117H92.444V27.5316H96.9912V22.9414H92.4533ZM78.8024 27.5316V32.117H74.2505V27.5316H78.8024ZM65.1515 27.5316V32.117H60.5996V27.5316H65.1515ZM46.9627 36.7072V32.117H51.5099V36.7072H46.9627ZM33.3024 32.117H37.8496V36.7072H33.3024V32.117ZM42.4015 45.8829H46.9533V50.473H42.4015V45.8829ZM60.5903 41.2927V36.7072H65.1421V41.2927H60.5903Z" fill="#D9E0A2"/>
<path d="M15.099 68.8242H10.5518V73.4144H15.099V68.8242Z" fill="#BBBC7D"/>
<path d="M15.099 59.6484H10.5518V64.2339H15.099V59.6484Z" fill="#BBBC7D"/>
<path d="M33.3019 59.6485V55.0583H28.75V45.8827H24.1888V41.2925H19.6509V36.707H15.0991V41.2925H10.5519V55.0583H6V77.9998H15.0991V73.4143H10.5519V68.8241H15.0991V64.234H10.5519V59.6485H15.0991V64.234H19.6509V59.6485H24.1888V68.8241H15.0991V73.4143H19.6509V77.9998H24.1888V73.4143H33.3019V64.234H37.8491V59.6485H33.3019ZM15.1131 55.0583V50.4728H19.6649V55.0583H15.1131Z" fill="#C7CC87"/>
</svg>

<svg width="103" height="95" fill="none" xmlns="http://www.w3.org/2000/svg"><path fill="#3A2C1E" d="M0 33h103v50H0zM6 83h90v4H6zM14 87h74v4H14zM20 91h62v4H20z"/><g clip-path="url(#a)"><path d="M97 59.648h-4.547v4.586H97v-4.586Z" fill="#B9BF6A"/><path d="M97 55.059h-4.547v4.59H97v-4.59ZM97 50.473h-4.547v4.585H97v-4.585ZM97 45.883h-4.547v4.59H97v-4.59ZM97 41.293h-4.547v4.59H97v-4.59ZM97 36.707h-4.547v4.585H97v-4.585Z" fill="#B9BF6A"/><path d="M97 32.117h-4.547v4.59H97v-4.59Z" fill="#FFF9E6"/><path d="M97 27.531h-4.547v4.586H97V27.53Z" fill="#FFF9E6"/><path d="M97 22.941h-4.547v4.59H97v-4.59Z" fill="#D9E0A2"/><path d="M92.452 68.824H87.9v4.59h4.552v-4.59ZM92.452 64.234H87.9v4.59h4.552v-4.59Z" fill="#B9BF6A"/><path d="M92.452 59.648H87.9v4.586h4.552v-4.586Z" fill="#B9BF6A"/><path d="M92.452 55.059H87.9v4.59h4.552v-4.59ZM92.452 50.473H87.9v4.585h4.552v-4.585ZM92.452 45.883H87.9v4.59h4.552v-4.59ZM92.452 41.293H87.9v4.59h4.552v-4.59Z" fill="#B9BF6A"/><path d="M92.452 36.707H87.9v4.585h4.552v-4.585ZM92.452 32.117H87.9v4.59h4.552v-4.59Z" fill="#FFF9E6"/><path d="M92.452 27.531H87.9v4.586h4.552V27.53Z" fill="#D9E0A2"/><path d="M92.452 22.941H87.9v4.59h4.552v-4.59Z" fill="#D9E0A2"/><path d="M92.452 13.766H87.9v4.585h4.552v-4.585Z" fill="#5D7A3F"/><path d="M92.452 9.176H87.9v4.59h4.552v-4.59Z" fill="#5D7A3F"/><path d="M92.452 4.59H87.9v4.585h4.552V4.59Z" fill="#779659"/><path d="M87.901 73.415H83.35V78h4.552v-4.585ZM87.901 68.824H83.35v4.59h4.552v-4.59ZM87.901 64.234H83.35v4.59h4.552v-4.59Z" fill="#B9BF6A"/><path d="M87.901 59.648H83.35v4.586h4.552v-4.586Z" fill="#B9BF6A"/><path d="M87.901 55.059H83.35v4.59h4.552v-4.59Z" fill="#A3A550"/><path d="M87.901 50.473H83.35v4.585h4.552v-4.585ZM87.901 45.883H83.35v4.59h4.552v-4.59ZM87.901 41.293H83.35v4.59h4.552v-4.59Z" fill="#B9BF6A"/><path d="M87.901 36.707H83.35v4.585h4.552v-4.585Z" fill="#FFF9E6"/><path d="M87.901 32.117H83.35v4.59h4.552v-4.59Z" fill="#D9E0A2"/><path d="M87.901 27.531H83.35v4.586h4.552V27.53Z" fill="#D9E0A2"/><path d="M87.901 22.941H83.35v4.59h4.552v-4.59Z" fill="#D9E0A2"/><path d="M87.901 18.352H83.35v4.59h4.552v-4.59ZM87.901 13.766H83.35v4.585h4.552v-4.585Z" fill="#6D6D30"/><path d="M87.901 9.176H83.35v4.59h4.552v-4.59ZM87.901 4.59H83.35v4.585h4.552V4.59ZM87.901 0H83.35v4.59h4.552V0Z" fill="#779659"/><path d="M83.349 73.415h-4.547V78h4.547v-4.585ZM83.349 68.824h-4.547v4.59h4.547v-4.59Z" fill="#B9BF6A"/><path d="M83.349 64.234h-4.547v4.59h4.547v-4.59Z" fill="#A3A550"/><path d="M83.349 59.648h-4.547v4.586h4.547v-4.586Z" fill="#B9BF6A"/><path d="M83.349 55.059h-4.547v4.59h4.547v-4.59ZM83.349 50.473h-4.547v4.585h4.547v-4.585ZM83.349 45.883h-4.547v4.59h4.547v-4.59Z" fill="#B9BF6A"/><path d="M83.349 41.293h-4.547v4.59h4.547v-4.59Z" fill="#FFF9E6"/><path d="M83.349 36.707h-4.547v4.585h4.547v-4.585ZM83.349 32.117h-4.547v4.59h4.547v-4.59Z" fill="#D9E0A2"/><path d="M83.349 27.531h-4.547v4.586h4.547V27.53Z" fill="#D9E0A2"/><path d="M83.349 22.941h-4.547v4.59h4.547v-4.59Z" fill="#D9E0A2"/><path d="M83.349 13.766h-4.547v4.585h4.547v-4.585Z" fill="#5D7A3F"/><path d="M83.349 9.176h-4.547v4.59h4.547v-4.59Z" fill="#779659"/><path d="M83.349 4.59h-4.547v4.585h4.547V4.59Z" fill="#5D7A3F"/><path d="M83.349 0h-4.547v4.59h4.547V0Z" fill="#779659"/><path d="M78.802 73.415H74.25V78h4.552v-4.585ZM78.802 68.824H74.25v4.59h4.552v-4.59ZM78.802 64.234H74.25v4.59h4.552v-4.59Z" fill="#B9BF6A"/><path d="M78.802 59.648H74.25v4.586h4.552v-4.586Z" fill="#B9BF6A"/><path d="M78.802 55.059H74.25v4.59h4.552v-4.59ZM78.802 50.473H74.25v4.585h4.552v-4.585ZM78.802 45.883H74.25v4.59h4.552v-4.59Z" fill="#B9BF6A"/><path d="M78.802 41.293H74.25v4.59h4.552v-4.59ZM78.802 36.707H74.25v4.585h4.552v-4.585ZM78.802 32.117H74.25v4.59h4.552v-4.59Z" fill="#D9E0A2"/><path d="M78.802 27.531H74.25v4.586h4.552V27.53Z" fill="#C4C985"/><path d="M78.802 22.941H74.25v4.59h4.552v-4.59Z" fill="#D9E0A2"/><path d="M78.802 13.766H74.25v4.585h4.552v-4.585Z" fill="#779659"/><path d="M78.802 9.176H74.25v4.59h4.552v-4.59ZM78.802 4.59H74.25v4.585h4.552V4.59Z" fill="#779659"/><path d="M74.25 73.415h-4.547V78h4.547v-4.585ZM74.25 68.824h-4.547v4.59h4.547v-4.59ZM74.25 64.234h-4.547v4.59h4.547v-4.59Z" fill="#B9BF6A"/><path d="M74.25 59.648h-4.547v4.586h4.547v-4.586Z" fill="#B9BF6A"/><path d="M74.25 55.059h-4.547v4.59h4.547v-4.59ZM74.25 50.473h-4.547v4.585h4.547v-4.585Z" fill="#B9BF6A"/><path d="M74.25 45.883h-4.547v4.59h4.547v-4.59Z" fill="#D9E0A2"/><path d="M74.25 41.293h-4.547v4.59h4.547v-4.59Z" fill="#C4C985"/><path d="M74.25 36.707h-4.547v4.585h4.547v-4.585ZM74.25 32.117h-4.547v4.59h4.547v-4.59Z" fill="#D9E0A2"/><path d="M74.25 27.531h-4.547v4.586h4.547V27.53Z" fill="#D9E0A2"/><path d="M74.25 22.941h-4.547v4.59h4.547v-4.59Z" fill="#D9E0A2"/><path d="M74.25 13.766h-4.547v4.585h4.547v-4.585Z" fill="#779659"/><path d="M69.703 73.415h-4.552V78h4.552v-4.585Z" fill="#B9BF6A"/><path d="M69.703 68.824h-4.552v4.59h4.552v-4.59Z" fill="#A3A550"/><path d="M69.703 64.234h-4.552v4.59h4.552v-4.59Z" fill="#B9BF6A"/><path d="M69.703 59.648h-4.552v4.586h4.552v-4.586Z" fill="#B9BF6A"/><path d="M69.703 55.059h-4.552v4.59h4.552v-4.59Z" fill="#B9BF6A"/><path d="M69.703 50.473h-4.552v4.585h4.552v-4.585Z" fill="#FFF9E6"/><path d="M69.703 45.883h-4.552v4.59h4.552v-4.59ZM69.703 41.293h-4.552v4.59h4.552v-4.59ZM69.703 36.707h-4.552v4.585h4.552v-4.585ZM69.703 32.117h-4.552v4.59h4.552v-4.59Z" fill="#D9E0A2"/><path d="M69.703 27.531h-4.552v4.586h4.552V27.53Z" fill="#D9E0A2"/><path d="M69.703 22.941h-4.552v4.59h4.552v-4.59Z" fill="#D9E0A2"/><path d="M69.703 13.766h-4.552v4.585h4.552v-4.585Z" fill="#5D7A3F"/><path d="M69.703 9.176h-4.552v4.59h4.552v-4.59ZM69.703 4.59h-4.552v4.585h4.552V4.59Z" fill="#779659"/><path d="M65.15 73.415H60.6V78h4.551v-4.585ZM65.15 68.824H60.6v4.59h4.551v-4.59ZM65.15 64.234H60.6v4.59h4.551v-4.59Z" fill="#B9BF6A"/><path d="M65.15 59.648H60.6v4.586h4.551v-4.586Z" fill="#B9BF6A"/><path d="M65.15 55.059H60.6v4.59h4.551v-4.59ZM65.15 50.473H60.6v4.585h4.551v-4.585Z" fill="#FFF9E6"/><path d="M65.15 45.883H60.6v4.59h4.551v-4.59ZM65.15 41.293H60.6v4.59h4.551v-4.59Z" fill="#D9E0A2"/><path d="M65.15 36.707H60.6v4.585h4.551v-4.585Z" fill="#C4C985"/><path d="M65.15 32.117H60.6v4.59h4.551v-4.59Z" fill="#D9E0A2"/><path d="M65.15 27.531H60.6v4.586h4.551V27.53Z" fill="#C4C985"/><path d="M65.15 22.941H60.6v4.59h4.551v-4.59Z" fill="#D9E0A2"/><path d="M65.15 18.352H60.6v4.59h4.551v-4.59ZM65.15 13.766H60.6v4.585h4.551v-4.585Z" fill="#6D6D30"/><path d="M65.15 9.176H60.6v4.59h4.551v-4.59ZM65.15 4.59H60.6v4.585h4.551V4.59ZM65.15 0H60.6v4.59h4.551V0Z" fill="#779659"/><path d="M60.599 73.415h-4.547V78h4.547v-4.585ZM60.599 68.824h-4.547v4.59h4.547v-4.59ZM60.599 64.234h-4.547v4.59h4.547v-4.59Z" fill="#B9BF6A"/><path d="M60.599 59.648h-4.547v4.586h4.547v-4.586Z" fill="#B9BF6A"/><path d="M60.599 55.059h-4.547v4.59h4.547v-4.59Z" fill="#FFF9E6"/><path d="M60.599 50.473h-4.547v4.585h4.547v-4.585Z" fill="#D9E0A2"/><path d="M60.599 45.883h-4.547v4.59h4.547v-4.59Z" fill="#C4C985"/><path d="M60.599 41.293h-4.547v4.59h4.547v-4.59ZM60.599 36.707h-4.547v4.585h4.547v-4.585ZM60.599 32.117h-4.547v4.59h4.547v-4.59Z" fill="#D9E0A2"/><path d="M60.599 27.531h-4.547v4.586h4.547V27.53Z" fill="#D9E0A2"/><path d="M60.599 22.941h-4.547v4.59h4.547v-4.59Z" fill="#D9E0A2"/><path d="M60.599 13.766h-4.547v4.585h4.547v-4.585Z" fill="#779659"/><path d="M60.599 9.176h-4.547v4.59h4.547v-4.59ZM60.599 4.59h-4.547v4.585h4.547V4.59Z" fill="#779659"/><path d="M56.052 73.415H51.5V78h4.552v-4.585ZM56.052 68.824H51.5v4.59h4.552v-4.59ZM56.052 64.234H51.5v4.59h4.552v-4.59Z" fill="#B9BF6A"/><path d="M56.052 59.648H51.5v4.586h4.552v-4.586Z" fill="#FFF9E6"/><path d="M56.052 55.059H51.5v4.59h4.552v-4.59ZM56.052 50.473H51.5v4.585h4.552v-4.585ZM56.052 45.883H51.5v4.59h4.552v-4.59ZM56.052 41.293H51.5v4.59h4.552v-4.59ZM56.052 36.707H51.5v4.585h4.552v-4.585ZM56.052 32.117H51.5v4.59h4.552v-4.59Z" fill="#D9E0A2"/><path d="M56.052 27.531H51.5v4.586h4.552V27.53Z" fill="#D9E0A2"/><path d="M56.052 22.941H51.5v4.59h4.552v-4.59Z" fill="#D9E0A2"/><path d="M56.052 9.176H51.5v4.59h4.552v-4.59Z" fill="#779659"/><path d="M51.5 73.415h-4.547V78H51.5v-4.585Z" fill="#B9BF6A"/><path d="M51.5 68.824h-4.547v4.59H51.5v-4.59Z" fill="#A3A550"/><path d="M51.5 64.234h-4.547v4.59H51.5v-4.59Z" fill="#B9BF6A"/><path d="M51.5 59.648h-4.547v4.586H51.5v-4.586Z" fill="#FFF9E6"/><path d="M51.5 55.059h-4.547v4.59H51.5v-4.59ZM51.5 50.473h-4.547v4.585H51.5v-4.585ZM51.5 45.883h-4.547v4.59H51.5v-4.59ZM51.5 41.293h-4.547v4.59H51.5v-4.59ZM51.5 36.707h-4.547v4.585H51.5v-4.585Z" fill="#D9E0A2"/><path d="M51.5 32.117h-4.547v4.59H51.5v-4.59Z" fill="#C4C985"/><path d="M51.5 27.531h-4.547v4.586H51.5V27.53Z" fill="#D9E0A2"/><path d="M51.5 22.941h-4.547v4.59H51.5v-4.59Z" fill="#D9E0A2"/><path d="M46.953 73.415h-4.552V78h4.552v-4.585ZM46.953 68.824h-4.552v4.59h4.552v-4.59Z" fill="#B9BF6A"/><path d="M46.953 64.234h-4.552v4.59h4.552v-4.59Z" fill="#FFF9E6"/><path d="M46.953 59.648h-4.552v4.586h4.552v-4.586Z" fill="#FFF9E6"/><path d="M46.953 55.059h-4.552v4.59h4.552v-4.59ZM46.953 50.473h-4.552v4.585h4.552v-4.585Z" fill="#D9E0A2"/><path d="M46.953 45.883h-4.552v4.59h4.552v-4.59Z" fill="#C4C985"/><path d="M46.953 41.293h-4.552v4.59h4.552v-4.59ZM46.953 36.707h-4.552v4.585h4.552v-4.585ZM46.953 32.117h-4.552v4.59h4.552v-4.59Z" fill="#D9E0A2"/><path d="M46.953 27.531h-4.552v4.586h4.552V27.53Z" fill="#D9E0A2"/><path d="M46.953 22.941h-4.552v4.59h4.552v-4.59Z" fill="#D9E0A2"/><path d="M42.4 73.415H37.85V78H42.4v-4.585ZM42.4 68.824H37.85v4.59H42.4v-4.59Z" fill="#B9BF6A"/><path d="M42.4 64.234H37.85v4.59H42.4v-4.59Z" fill="#FFF9E6"/><path d="M42.4 59.648H37.85v4.586H42.4v-4.586Z" fill="#FFF9E6"/><path d="M42.4 55.059H37.85v4.59H42.4v-4.59Z" fill="#FFF9E6"/><path d="M42.4 50.473H37.85v4.585H42.4v-4.585ZM42.4 45.883H37.85v4.59H42.4v-4.59ZM42.4 41.293H37.85v4.59H42.4v-4.59ZM42.4 36.707H37.85v4.585H42.4v-4.585ZM42.4 32.117H37.85v4.59H42.4v-4.59Z" fill="#D9E0A2"/><path d="M42.4 27.531H37.85v4.586H42.4V27.53Z" fill="#D9E0A2"/><path d="M42.4 22.941H37.85v4.59H42.4v-4.59Z" fill="#D9E0A2"/><path d="M37.849 73.415h-4.547V78h4.547v-4.585Z" fill="#B9BF6A"/><path d="M37.849 68.824h-4.547v4.59h4.547v-4.59ZM37.849 64.234h-4.547v4.59h4.547v-4.59Z" fill="#FFF9E6"/><path d="M37.849 59.648h-4.547v4.586h4.547v-4.586Z" fill="#C7CC87"/><path d="M37.849 55.059h-4.547v4.59h4.547v-4.59ZM37.849 50.473h-4.547v4.585h4.547v-4.585Z" fill="#FFF9E6"/><path d="M37.849 45.883h-4.547v4.59h4.547v-4.59ZM37.849 41.293h-4.547v4.59h4.547v-4.59ZM37.849 36.707h-4.547v4.585h4.547v-4.585Z" fill="#D9E0A2"/><path d="M37.849 32.117h-4.547v4.59h4.547v-4.59Z" fill="#C4C985"/><path d="M37.849 27.531h-4.547v4.586h4.547V27.53Z" fill="#D9E0A2"/><path d="M37.849 22.941h-4.547v4.59h4.547v-4.59Z" fill="#D9E0A2"/><path d="M37.849 13.766h-4.547v4.585h4.547v-4.585Z" fill="#779659"/><path d="M33.302 73.415H28.75V78h4.552v-4.585Z" fill="#B9BF6A"/><path d="M33.302 68.824H28.75v4.59h4.552v-4.59ZM33.302 64.234H28.75v4.59h4.552v-4.59Z" fill="#C7CC87"/><path d="M33.302 59.648H28.75v4.586h4.552v-4.586Z" fill="#C7CC87"/><path d="M33.302 55.059H28.75v4.59h4.552v-4.59Z" fill="#C7CC87"/><path d="M33.302 50.473H28.75v4.585h4.552v-4.585ZM33.302 45.883H28.75v4.59h4.552v-4.59ZM33.302 41.293H28.75v4.59h4.552v-4.59Z" fill="#FFF9E6"/><path d="M33.302 36.707H28.75v4.585h4.552v-4.585ZM33.302 32.117H28.75v4.59h4.552v-4.59Z" fill="#D9E0A2"/><path d="M33.302 27.531H28.75v4.586h4.552V27.53Z" fill="#D9E0A2"/><path d="M33.302 22.941H28.75v4.59h4.552v-4.59Z" fill="#D9E0A2"/><path d="M33.302 13.766H28.75v4.585h4.552v-4.585Z" fill="#5D7A3F"/><path d="M33.302 9.176H28.75v4.59h4.552v-4.59ZM33.302 4.59H28.75v4.585h4.552V4.59Z" fill="#779659"/><path d="M28.75 73.415h-4.552V78h4.552v-4.585Z" fill="#FFF9E6"/><path d="M28.75 68.824h-4.552v4.59h4.552v-4.59ZM28.75 64.234h-4.552v4.59h4.552v-4.59Z" fill="#C7CC87"/><path d="M28.75 59.648h-4.552v4.586h4.552v-4.586Z" fill="#C7CC87"/><path d="M28.75 55.059h-4.552v4.59h4.552v-4.59ZM28.75 50.473h-4.552v4.585h4.552v-4.585ZM28.75 45.883h-4.552v4.59h4.552v-4.59Z" fill="#C7CC87"/><path d="M28.75 41.293h-4.552v4.59h4.552v-4.59ZM28.75 36.707h-4.552v4.585h4.552v-4.585Z" fill="#FFF9E6"/><path d="M28.75 32.117h-4.552v4.59h4.552v-4.59Z" fill="#D9E0A2"/><path d="M28.75 27.531h-4.552v4.586h4.552V27.53Z" fill="#D9E0A2"/><path d="M28.75 22.941h-4.552v4.59h4.552v-4.59Z" fill="#6D6D30"/><path d="M28.75 18.352h-4.552v4.59h4.552v-4.59Z" fill="#6D6D30"/><path d="M28.75 13.766h-4.552v4.585h4.552v-4.585Z" fill="#5D7A3F"/><path d="M28.75 9.176h-4.552v4.59h4.552v-4.59ZM28.75 4.59h-4.552v4.585h4.552V4.59ZM28.75 0h-4.552v4.59h4.552V0Z" fill="#779659"/><path d="M24.199 73.415H19.65V78H24.2v-4.585ZM24.199 68.824H19.65v4.59H24.2v-4.59Z" fill="#C7CC87"/><path d="M24.199 64.234H19.65v4.59H24.2v-4.59Z" fill="#BBBC7D"/><path d="M24.199 59.648H19.65v4.586H24.2v-4.586Z" fill="#BBBC7D"/><path d="M24.199 55.059H19.65v4.59H24.2v-4.59ZM24.199 50.473H19.65v4.585H24.2v-4.585ZM24.199 45.883H19.65v4.59H24.2v-4.59ZM24.199 41.293H19.65v4.59H24.2v-4.59Z" fill="#C7CC87"/><path d="M24.199 36.707H19.65v4.585H24.2v-4.585ZM24.199 32.117H19.65v4.59H24.2v-4.59Z" fill="#FFF9E6"/><path d="M24.199 27.531H19.65v4.586H24.2V27.53Z" fill="#D9E0A2"/><path d="M24.199 22.941H19.65v4.59H24.2v-4.59Z" fill="#D9E0A2"/><path d="M24.199 13.766H19.65v4.585H24.2v-4.585Z" fill="#779659"/><path d="M24.199 9.176H19.65v4.59H24.2v-4.59Z" fill="#779659"/><path d="M19.651 73.415H15.1V78h4.551v-4.585Z" fill="#BBBC7D"/><path d="M19.651 68.824H15.1v4.59h4.551v-4.59Z" fill="#C7CC87"/><path d="M19.651 64.234H15.1v4.59h4.551v-4.59Z" fill="#BBBC7D"/><path d="M19.651 59.648H15.1v4.586h4.551v-4.586Z" fill="#C7CC87"/><path d="M19.651 55.059H15.1v4.59h4.551v-4.59Z" fill="#C7CC87"/><path d="M19.651 50.473H15.1v4.585h4.551v-4.585Z" fill="#BBBC7D"/><path d="M19.651 45.883H15.1v4.59h4.551v-4.59ZM19.651 41.293H15.1v4.59h4.551v-4.59ZM19.651 36.707H15.1v4.585h4.551v-4.585Z" fill="#C7CC87"/><path d="M19.651 32.117H15.1v4.59h4.551v-4.59Z" fill="#FFF9E6"/><path d="M19.651 27.531H15.1v4.586h4.551V27.53Z" fill="#D9E0A2"/><path d="M19.651 22.941H15.1v4.59h4.551v-4.59Z" fill="#D9E0A2"/><path d="M15.099 73.415h-4.547V78h4.547v-4.585Z" fill="#C7CC87"/><path d="M15.099 68.824h-4.547v4.59h4.547v-4.59Z" fill="#BBBC7D"/><path d="M15.099 64.234h-4.547v4.59h4.547v-4.59Z" fill="#C7CC87"/><path d="M15.099 59.648h-4.547v4.586h4.547v-4.586Z" fill="#BBBC7D"/><path d="M15.099 55.059h-4.547v4.59h4.547v-4.59ZM15.099 50.473h-4.547v4.585h4.547v-4.585ZM15.099 45.883h-4.547v4.59h4.547v-4.59ZM15.099 41.293h-4.547v4.59h4.547v-4.59ZM10.552 73.415H6V78h4.552v-4.585ZM10.552 68.824H6v4.59h4.552v-4.59ZM10.552 64.234H6v4.59h4.552v-4.59Z" fill="#C7CC87"/><path d="M10.552 59.648H6v4.586h4.552v-4.586Z" fill="#C7CC87"/><path d="M10.552 55.059H6v4.59h4.552v-4.59Z" fill="#C7CC87"/></g><defs><clipPath id="a"><path fill="#fff" transform="translate(6)" d="M0 0h91v78H0z"/></clipPath></defs></svg>
